X: 80
T:King's Hornpipe. BF13.079
M:4/4
Q:160
S:J.Lishman()MS,c1825,Lakes,Browne Coll.
R:Hornpipe
O:England
A:Lakes
Z:vmp.Chris Partington
K:Bb
fe|dbfd BfdB|FdBFD2EF|GABc decB|A2F2F2fe|!
dbfd BfdB|FdBFD2EF|GABG FGFE|D2B,2B,2:|!
|:DE|FBdB FBdB|Gcec Gcec|dfga bag^f|g2g2g2ab|!
fbfd BfdB|FdBFD2EF|GABG FGFE|D2B,2B,2:|]
